X: 42823
T: Why Were You Playing That?
R: reel
M: 4/4
K: Gmajor
dc|:BG~G2 AGFA|G3D EDB,D|GBdg bg~g2|FGAB cedc|
BG~G2 AGFA|G3D EDB,D|GBdg bg~g2|AGFA G2dc:|
BG~G2 DGBd|~g2fg edBG|cBce dBGB|Ad^cd ed=cA|
BG~G2 DGBd|~g2fg edBG|EDEc BG~G2|1 AGFA G3 A:|2 AGFA G2||

